X:1
T:Schule fuer die Gitarre - Uebungsstuecke --- school for the guitar - practice pieces
T:No 15 - Allegretto
T:No 15 - Allegretto
T:Schule für die Gitarre - Übungsstücke
T:Johann Kaspar Mertz (1806-1856)
T:		
C:Johann Kaspar Mertz (1806-1856)
Z:
%%score ( 1 2 )
L:1/8
Q:1/4=116
M:6/8
K:D
V:1 treble-8 nm="Klassische Gitarre"
V:2 treble-8 
V:1
"^Allegretto"!p! A2 ^A B2 [Bg] | [cg]2 [ca] [dg]>fe | dcd [Be]2 B |!f! [Be]2 B!p! [Ac]2 A | %4
 A2 ^A B2 [Bg] | [cg]2 [ca] [dg]>fe | dcd [Be]2 [GBg] | [Gc]2 [Gca] [Fd]3 | [Ace]>fe [Bde]2 [Bde] | %9
 [Bdf]2 (!-(!^g/!-)!b/) b2 [ca] | [Ace]fe [GB=f]2 e | !>!=F2 E [Ac^f]2 e | !>!F2 E [Bde]2 [Bde] | %13
 [Bdf]2 (!-(!^g/!-)!b/) b2 [ca] | [Bf]2 [B=f] [Ace]2 A | [Gc]2 B A3 |!p! A2 ^A B2 [Bg] | %17
 [cg]2 [ca] [dg]>fe | dcd [Be]2 B | [Be]2 B [Ac]2 A | A2 ^A B2 [Bg] | [cg]2 [ca] [dg]>fe | %22
 dcd [Be]2 [GBg] | [Gc]2 [Gca] [Fd]3 |] %24
V:2
 D2 D D2 D | D2 D D2 D | B,2 B, G,2 G, | ^G,2 G, A,2 A, | D2 D D2 D | D2 D D2 D | B,2 B, G,2 E, | %7
 A,2 A, D3 | A,2 A, A,2 A, | A,2 A, A,2 A, | A,2 A, A,2 A, | A,2 A, A,2 A, | A,2 A, A,2 A, | %13
 A,2 A, A,2 A, | D2 D E,2 E, | E,2 E, A,3 | D2 D D2 D | D2 D D2 D | B,2 B, G,2 G, | %19
 ^G,2 G, A,2 A, | D2 D D2 D | D2 D D2 D | B,2 B, G,2 E, | A,2 A, D3 |] %24

